packages/vibrant-icons/assets/icons/AlignHorizontalRight/Thin.svg

<svg width="24" height="24" viewBox="0 0 24 24" fill="none" xmlns="http://www.w3.org/2000/svg"><path d="M21.1504 22.3499v-20.7h1.2v20.7h-1.2Zm-12.15001-3.25c-.469 0-.85-.381-.85-.85v-4c0-.469.381-.85.85-.85h9.00001c.469 0 .85.381.85.85v4c0 .469-.381.85-.85.85H9.00039Zm.85-1.7h7.30001v-2.3H9.85039v2.3Zm-6.85-6.8c-.469 0-.85-.381-.85-.85v-4c0-.469.381-.85.85-.85H18.0004c.469 0 .85.381.85.85v4c0 .469-.381.85-.85.85H3.00039Zm.85-1.7H17.1504v-2.3H3.85039v2.3Z" fill="#000"/></svg>

<svg xmlns="http://www.w3.org/2000/svg" width="24" height="24" fill="none"><path fill="#000" d="M21.15 22.35V1.65h1.2v20.7zM9 19.1a.85.85 0 0 1-.85-.85v-4A.85.85 0 0 1 9 13.4h9a.85.85 0 0 1 .85.85v4a.85.85 0 0 1-.85.85zm.85-1.7h7.3v-2.3h-7.3zM3 10.6a.85.85 0 0 1-.85-.85v-4A.85.85 0 0 1 3 4.9h15a.85.85 0 0 1 .85.85v4a.85.85 0 0 1-.85.85zm.85-1.7h13.3V6.6H3.85z"/></svg>
